X: 31570
T: Pair O' Gnomes, The
R: polka
M: 2/4
K: Gmajor
|:g2 e>d|BG GE|DF AB|Gc ea|
g2 e>d|BG GE|DF Ac|BG G2:|
g2 e>d|g2 e>d|df ab|df ab|
g2 e>d|g2 e>d|DF Ac|BG G2|
g2 e>d|g2 e>d|df ab|df ab|
gf/e/ d c/B/|AG/F/ ED|DF Ac|BG G2||

